X:1681
T:Duchess Hamilton
O:england
R:Jig
M:6/8
K:D
f | ecA def | ecA d2f | ecA ecA | BGB d2f | \
ecA def | ecA d2e | faf edc | BGB d2 :|
|:f | ecA acA | ecA d2f | ecA acA | BGB d2f | \
ecA acA | ecA d2e | faf edc | d3 d2 :|


